data/icons/ui/med-bottle-symbolic.svg

<?xml version="1.0" encoding="UTF-8" standalone="no"?>
<svg
   height="16"
   width="16"
   xml:space="preserve"
   version="1.1"
   id="svg2"
   sodipodi:docname="med-bottle-symbolic.svg"
   inkscape:version="1.3 (0e150ed6c4, 2023-07-21)"
   xmlns:inkscape="http://www.inkscape.org/namespaces/inkscape"
   xmlns:sodipodi="http://sodipodi.sourceforge.net/DTD/sodipodi-0.dtd"
   xmlns="http://www.w3.org/2000/svg"
   xmlns:svg="http://www.w3.org/2000/svg"><defs
     id="defs2" /><sodipodi:namedview
     id="namedview2"
     pagecolor="#ffffff"
     bordercolor="#000000"
     borderopacity="0.25"
     inkscape:showpageshadow="2"
     inkscape:pageopacity="0.0"
     inkscape:pagecheckerboard="0"
     inkscape:deskcolor="#d1d1d1"
     inkscape:zoom="5.6568545"
     inkscape:cx="-24.218406"
     inkscape:cy="40.57025"
     inkscape:window-width="1920"
     inkscape:window-height="1011"
     inkscape:window-x="0"
     inkscape:window-y="0"
     inkscape:window-maximized="1"
     inkscape:current-layer="g1"
     showgrid="true"><inkscape:grid
       id="grid9"
       units="px"
       originx="0"
       originy="0"
       spacingx="1"
       spacingy="1"
       empcolor="#0099e5"
       empopacity="0.30196078"
       color="#0099e5"
       opacity="0.14901961"
       empspacing="5"
       dotted="false"
       gridanglex="30"
       gridanglez="30"
       visible="true" /></sodipodi:namedview><g
     id="g1"
     transform="rotate(-45,10.053767,8.8647124)"><path
       id="path6"
       style="color:#000000;fill:#000000;stroke-width:0.991025;-inkscape-stroke:none"
       d="M 14.869135,1.1434919 C 14.332854,0.61214744 13.801663,0.07379624 13.255081,-0.46778375 12.944066,-0.77595158 12.484653,-0.71541246 12.174767,-0.40339429 L 11.84996,-0.0785865 c -0.309856,0.3120508 -0.371487,0.67658814 -0.06295,0.98728204 l 0.05551,0.055514 c 0.05839,0.058809 0.05851,0.10472606 -8.1e-5,0.16384516 L 11.72826,1.2422349 c -0.109109,0.110108 -0.503726,0.061363 -0.897015,0.061537 l -2.3160647,0.031688 -0.00555,2.7e-6 -0.00834,-0.00277 C 7.8235529,1.3166597 7.0305877,1.9088518 6.5346221,2.4083704 L 2.2805393,6.6929955 C 1.4412746,7.5382288 1.4392297,8.9075146 2.2748643,9.7491282 l 1.7236866,1.7347998 0.2636875,0.266465 0.00139,0.0014 0.2664656,0.263687 1.7347998,1.723687 c 0.8416133,0.835638 2.2108992,0.833593 3.0561326,-0.0057 L 13.605642,9.4793114 c 0.499519,-0.495966 1.091711,-1.2889309 1.075683,-1.9666727 l -0.0014,-0.00694 3e-6,-0.00555 0.03029,-2.3174527 c 1.7e-4,-0.3932923 -0.04858,-0.7879062 0.06154,-0.8970137 l 0.11418,-0.1141803 c 0.05912,-0.058586 0.10504,-0.058478 0.163845,-8.09e-5 l 0.05551,0.055514 c 0.310695,0.3085321 0.675279,0.2469477 0.987331,-0.062903 L 16.417431,3.8392239 C 16.729448,3.529336 16.78994,3.0698783 16.481834,2.7588627 15.940255,2.2122798 15.401903,1.6810903 14.870558,1.1448088 c -4.57e-4,-4.615e-4 -9.31e-4,-9.263e-4 -0.0014,-0.00139 z m -2.178271,2.1810469 c 2.44e-4,1.0097856 -0.01953,3.0145139 -0.01997,4.0003322 0.0079,0.1906134 -0.501529,0.7689543 -0.637776,0.9042398 L 7.8804252,12.354007 c -0.045321,0.02803 -0.073666,0.03721 -0.1083059,0.0028 L 5.9790307,10.574861 5.7084015,10.30701 5.7070115,10.30561 5.4391605,10.034981 3.6571848,8.2418926 c -0.034378,-0.03465 -0.025195,-0.06298 0.00283,-0.108306 L 7.7849033,3.9809465 C 7.9201888,3.8447004 8.4985297,3.335278 8.689143,3.3431712 c 0.9861574,-4.888e-4 2.992273,-0.018914 4.001721,-0.018631 z"
       sodipodi:nodetypes="cscccccccccccccccccccccccccccccccscccccccccccccccsc" /><path
       id="rect4"
       style="fill-rule:evenodd;stroke-width:1.55791;stroke-linecap:square"
       d="M 7.091657,3.2655021 12.748511,8.9223568 9.9200836,11.750783 4.2632328,6.0939274 Z"
       sodipodi:nodetypes="ccccc" /></g></svg>

<svg xmlns="http://www.w3.org/2000/svg" xml:space="preserve" width="16" height="16"><path d="M14.87 1.143c-.537-.53-1.068-1.07-1.615-1.61-.31-.309-.77-.248-1.08.064l-.325.324c-.31.312-.372.677-.063.988l.056.055c.058.059.058.105 0 .164l-.115.114c-.109.11-.503.062-.897.062l-2.316.031H8.51L8.5 1.333c-.677-.016-1.47.576-1.966 1.075L2.28 6.693a2.173 2.173 0 0 0-.006 3.056l1.724 1.735.263.266.002.002.266.263 1.735 1.724c.842.836 2.21.834 3.056-.006l4.285-4.254c.5-.496 1.091-1.289 1.075-1.966l-.001-.007V7.5l.03-2.317c0-.394-.048-.788.062-.897l.114-.114c.06-.06.105-.059.164 0l.055.055c.311.308.676.247.988-.063l.324-.325c.312-.31.373-.77.065-1.08-.542-.547-1.08-1.078-1.611-1.614zm-2.18 2.182c.001 1.01-.019 3.014-.02 4 .009.19-.5.769-.637.904L7.88 12.354c-.045.028-.073.037-.108.003L5.98 10.575l-.27-.268-.002-.001-.268-.271-1.782-1.793c-.034-.035-.025-.063.003-.108L7.785 3.98c.135-.136.714-.646.904-.638.986 0 2.992-.019 4.002-.018" style="color:#000;fill:#000;stroke-width:.991025;-inkscape-stroke:none" transform="rotate(-45 10.054 8.865)"/><path d="m7.092 3.266 5.657 5.656-2.829 2.829-5.657-5.657Z" style="fill-rule:evenodd;stroke-width:1.55791;stroke-linecap:square" transform="rotate(-45 10.054 8.865)"/></svg>
